Icons/TM_Icons/more icons/postmail2.svg

<?xml version='1.0' encoding='utf-8'?>
<ns0:svg xmlns:ns0="http://www.w3.org/2000/svg" version="1.1" viewBox="173.0 -247.0 1974.0 1974.0" role="img" focusable="false" preserveAspectRatio="xMidYMid meet">
   <ns0:path fill="currentColor" d="M1900 -483v296h-247v-296h247zM765 -39h641v49h-641v-49zM962 356h642v49h-642v-49zM864 159h641v49h-641v-49zM222 -631v1382h1875v-1382h-1875zM173 -680h1974v1480h-1974v-1480z" />
</ns0:svg>

<svg xmlns="http://www.w3.org/2000/svg" width="400" height="200" viewBox="-320 -680 2960 1480"><path fill="currentColor" d="M1900-483v296h-247v-296zM765-39h641v49H765zm197 395h642v49H962zm-98-197h641v49H864zM222-631V751h1875V-631zm-49-49h1974V800H173z"/></svg>
